svg/m/UZ.svg

<svg width="20" height="15" viewBox="0 0 20 15" fill="none" xmlns="http://www.w3.org/2000/svg">
<mask id="mask0" mask-type="alpha" maskUnits="userSpaceOnUse" x="0" y="0" width="20" height="15">
<rect width="20" height="15" fill="white"/>
</mask>
<g mask="url(#mask0)">
<path fill-rule="evenodd" clip-rule="evenodd" d="M0 10H20V15H0V10Z" fill="#14DC5A"/>
<path fill-rule="evenodd" clip-rule="evenodd" d="M0 0H20V6.25H0V0Z" fill="#0099B5"/>
<path d="M-1.25 5.78125H-1.71875V6.25V10V10.4688H-1.25H21.25H21.7188V10V6.25V5.78125H21.25H-1.25Z" fill="#F7FCFF" stroke="#C51918" stroke-width="0.9375"/>
<path fill-rule="evenodd" clip-rule="evenodd" d="M10.4546 1.50064L9.84042 1.84907L10.0158 1.14093L9.42749 0.62056H10.1959L10.4537 -0.0495605L10.7559 0.62056H11.411L10.8962 1.14093L11.1437 1.84907L10.4546 1.50064ZM7.30596 3.42212L7.92014 3.0737L8.60928 3.42212L8.36179 2.71398L8.8765 2.19361H8.22142L7.91921 1.52349L7.66148 2.19361H6.89304L7.48137 2.71398L7.30596 3.42212ZM5.61034 4.72081L4.99616 5.06924L5.17157 4.3611L4.58324 3.84073H5.35168L5.60941 3.17061L5.91162 3.84073H6.5667L6.05199 4.3611L6.29948 5.06924L5.61034 4.72081ZM7.95551 4.72353L7.34133 5.07196L7.51674 4.36382L6.92841 3.84345H7.69685L7.95458 3.17333L8.25679 3.84345H8.91187L8.39716 4.36382L8.64465 5.07196L7.95551 4.72353ZM10.4555 4.72353L9.84133 5.07196L10.0167 4.36382L9.4284 3.84345H10.1969L10.4546 3.17333L10.7568 3.84345H11.4119L10.8972 4.36382L11.1446 5.07196L10.4555 4.72353ZM9.80596 3.42212L10.4201 3.0737L11.1093 3.42212L10.8618 2.71398L11.3765 2.19361H10.7214L10.4192 1.52349L10.1615 2.19361H9.39304L9.98137 2.71398L9.80596 3.42212ZM12.3413 5.07196L12.9555 4.72353L13.6446 5.07196L13.3972 4.36382L13.9119 3.84345H13.2568L12.9546 3.17333L12.6969 3.84345H11.9284L12.5167 4.36382L12.3413 5.07196ZM12.9201 3.0737L12.306 3.42212L12.4814 2.71398L11.893 2.19361H12.6615L12.9192 1.52349L13.2214 2.19361H13.8765L13.3618 2.71398L13.6093 3.42212L12.9201 3.0737ZM12.3404 1.84907L12.9546 1.50064L13.6437 1.84907L13.3962 1.14093L13.911 0.62056H13.2559L12.9537 -0.0495605L12.6959 0.62056H11.9275L12.5158 1.14093L12.3404 1.84907ZM15.4555 4.72353L14.8413 5.07196L15.0167 4.36382L14.4284 3.84345H15.1969L15.4546 3.17333L15.7568 3.84345H16.4119L15.8972 4.36382L16.1446 5.07196L15.4555 4.72353ZM14.806 3.42212L15.4201 3.0737L16.1093 3.42212L15.8618 2.71398L16.3765 2.19361H15.7214L15.4192 1.52349L15.1615 2.19361H14.393L14.9814 2.71398L14.806 3.42212ZM15.4546 1.50064L14.8404 1.84907L15.0158 1.14093L14.4275 0.62056H15.1959L15.4537 -0.0495605L15.7559 0.62056H16.411L15.8962 1.14093L16.1437 1.84907L15.4546 1.50064ZM3.67807 5.15046C3.67807 5.15046 2.16816 4.74094 2.19659 3.22626C2.22503 1.71158 3.75 1.31833 3.75 1.31833C3.12689 1.08237 1.28447 1.39899 1.25046 3.21091C1.21644 5.02282 3.09746 5.37977 3.67807 5.15046Z" fill="#F7FCFF"/>
</g>
</svg>

<svg width="20" height="15" fill="none" xmlns="http://www.w3.org/2000/svg">
  <mask id="a" maskUnits="userSpaceOnUse" x="0" y="0" width="20" height="15">
    <path fill="#fff" d="M0 0h20v15H0z"/>
  </mask>
  <g mask="url(#a)">
    <path fill-rule="evenodd" clip-rule="evenodd" d="M0 10h20v5H0v-5z" fill="#14DC5A"/>
    <path fill-rule="evenodd" clip-rule="evenodd" d="M0 0h20v6.25H0V0z" fill="#0099B5"/>
    <path d="M-1.25 5.781h-.469v4.689H21.72V5.78H-1.25z" fill="#F7FCFF" stroke="#C51918" stroke-width=".938"/>
    <path fill-rule="evenodd" clip-rule="evenodd" d="M10.455 1.5l-.615.349.176-.708-.589-.52h.769l.258-.67.302.67h.655l-.515.52.248.708-.69-.348zM7.306 3.423l.614-.348.69.348-.248-.708.514-.52h-.655l-.302-.67-.258.67h-.768l.588.52-.175.708zM5.61 4.721l-.614.348.176-.708-.589-.52h.769l.257-.67.303.67h.655l-.515.52.247.708-.689-.348zm2.346.002l-.615.349.176-.708-.589-.52h.769l.258-.67.302.67h.655l-.515.52.248.708-.69-.349zm2.5 0l-.615.349.176-.708-.589-.52h.769l.258-.67.302.67h.655l-.515.52.248.708-.69-.349zm-.65-1.3l.614-.35.69.35-.248-.71.514-.52h-.655l-.302-.67-.258.67h-.768l.588.52-.175.71zm2.535 1.649l.615-.349.689.349-.248-.708.515-.52h-.655l-.302-.67-.258.67h-.769l.589.52-.176.708zm.58-1.998l-.615.348.175-.708-.588-.52h.768l.258-.67.302.67h.655l-.514.52.247.708-.689-.348zm-.58-1.225l.614-.348.689.348-.248-.708.515-.52h-.655l-.302-.67-.258.67h-.768l.588.52-.176.708zm3.115 2.874l-.615.349.176-.708-.589-.52h.769l.258-.67.302.67h.655l-.515.52.248.708-.69-.349zm-.65-1.3l.614-.35.69.35-.248-.71.514-.52h-.655l-.302-.67-.258.67h-.768l.588.52-.175.71zm.649-1.922l-.615.348.176-.708-.588-.52h.768l.258-.67.302.67h.655l-.515.52.248.708-.69-.348zM3.678 5.15s-1.51-.41-1.481-1.925C2.225 1.712 3.75 1.318 3.75 1.318c-.623-.236-2.466.08-2.5 1.893-.034 1.812 1.847 2.169 2.428 1.94z" fill="#F7FCFF"/>
  </g>
</svg>
